X:44
T:The Mackilmoyle
S:Bernie Waugh
R:Reel
M:4/4
L:1/8
K:D
|:DFAd|\
"D"fefd "A"cdec|"Bm(D)"dBAF "F#m"DFA=c|\
"G"BABG "D"FGAF|"A"EA,CE DFAd|
"D"fefd "A"cdec|"Bm"dBAF "F#m"DFA=c|"G"BABd "A"cdec|"D"d4:|
|:cdef|\
"Em(Cm-stop)"gfg2 Ace^g|"A(F-stop)"a^ga2Acef|\
"Em(Cm)"gfge "D(Bm)"dfed|"A"cBA2Acef|
"Em(Cm-stop)"gfg2 Ace^g|"A(F-stop)"a^ga2 Acef|\
"Em(Cm)"gfge "A"Acec|"D(Bb!)"d4:|

